X: 38608
T: Stonewaller, The
R: polka
M: 2/4
K: Eminor
|:Bd eB|A2 Bd|eB A2|AG E2|Bd eB|A2 BA|GA AG|A2 AG|
Bd eB|A2 Bd|eB A2|AG E2|ea ae|ge da|ae ge|dB AG:|
|:eg g2|ge dB|G2 AG|AB dB|eg gf|ge dB|GA AG|A2 A2|
eg gf|ge dB|GA AG|AB d2|ea ae|ge da|ae ge|dB AG:|

